X:1
T: Hon. Mrs. Maule's Favourite
C:
R:Reel
Q: 232
K:A
M:4/4
L:1/8
|:e2|ag ae ce Ac|dF BA GB EG|A2 cA FD fe|dc BA GE g2|
ag ae ce Ac|dF BA GB EG|Ae cA Ff dD|GE FG A2 d2|
cB cd ec a2|fd b2 ge fg|ae fc df Bd|ce GB A2 Ad|
cB cd ec a2|fd b2 ge fg|ae fc df Bd|ce GB A2:|
